!!!!SEGMENT: pl-sa--l-1636--025_anonim--keyboard-piece.krn
!!!cenid: 17xx:732
!!!COM: Anonim
!!!COM-rismID:
!!!CDT:
!!!CNT:
!!!OTL: [Keyboard piece]
!!!PDT:
!!!AGN: Secular
!!!SMS-siglum: PL-SA
!!!SMS-shelfmark: L 1636
!!!SMS-shelfwork: 025 W
!!!SMS-variant:
!!!SMS-altvar:
!!!NIFC-rismSourceID: 1001076432
!!!NIFC-islandoraID:
!!!URL-pdf-islandora:
!!!URL-scan:
!!!ONB-nifc: 7v-8r, skan 0011, s. 3-5
!!!AIN: 1 empty
!!!key:
**kern	**kern
*part1	*part1
*staff2	*staff1
*ICklav	*ICklav
*Iempty	*Iempty
*I"[Keyboard]	*
*I'keyb	*
*clefF4	*clefC1
*k[f#c#]	*k[f#c#]
*e:	*e:
*M2/2	*M2/2
*met(c|)	*met(c|)
=1	=1
2ryy	4e/
.	4B/
4A\	8c#/L
.	8d#X/J
4E\	4e/
=2	=2
8F#\L	4d/
8G#\J	.
4A\	8c#/L
.	8d#X/J
4G#X\	4e/
4F#\	4f#/
=3	=3
4.G#X\	4f#/
.	16e/LL
.	16d#X/JJ
!	!LO:N:vis=4.
8A\	4e/
2B\	.
!	!LO:TX:b:t=P:problem=# below
.	16d#X/LL
.	16c#/JJ
!	!LO:TX:b:t=P:problem=# below
.	4d#X/
=4	=4
*^	*
8G#/L	4E\	4e/
8A/J	.	.
4B/	4BB\	4d#X/
4A/	8C#\L	4e/
.	8D\J	.
4G#X/	4E\	4B/
=5	=5	=5
*	*	*^
4A/	4F#\	4a/	8c#\L
.	.	.	8d#X\J
4B/	4G#\	4e/	4e\
2A/	4.F#\	8f#/L	2ryy
.	.	8g/J	.
.	.	4a\	.
.	8D#X\	.	.
!!LO:LB:g=original
=6	=6	=6	=6
*	*^	*	*
4G#/	4E\	2B/	4ee/	8g#\L
.	.	.	.	8a#X\J
4F#/	4D#X\	.	4ryy	4b\
4.B/	2C#\	2ryy	2ryy	8cc#\L
.	.	.	.	8dd#X\J
.	.	.	.	4ee\
8A#X/	.	.	.	.
*	*v	*v	*	*
=7	=7	=7	=7
8B/L	4BB\	8dd/L	4b\
8G#X/J	.	8ee/J	.
4A/	8C#\L	4cc#/	4a\
.	8D#X\J	.	.
!LO:TX:a:t=P:problem=# above	!	!	!
8G#X/L	4.E\	4b/	2ryy
8A#/J	.	.	.
4B/	.	4f#/	.
.	8BB\	.	.
*v	*v	*	*
=8	=8	=8
4.A\	4a/	8c#\L
.	.	8d#X\J
.	4g#/	4.e\
8E\	.	.
4B\	2f#/	.
.	.	16d#\LL
.	.	16c#\JJ
4BB/	.	4d#X\
*	*v	*v
=9	=9
*^	*
2B/	4E\	8g#\L
.	.	8a#X\J
!	!	!LO:TX:a:t=P:problem=mixed beam
.	4D#X\	8b\L
.	.	8f#/J
4B/	2C#\	8cc#\L
.	.	8dd#X\J
4A#X/	.	4ee\
*clefC4	*	*
*custos:B	*	*custos:ee
!!LO:PB:g=original
=10	=10	=10
*	*	*^
4B/	4BB\	8ee\L	4ryy
.	.	16dd#X\L	.
.	.	16cc#\JJ	.
4B\	4ryy	4dd#X/	4b\
8c#\L	2ryy	4cc#/	4a\
8d#X\J	.	.	.
!LO:TX:a:t=e	!	!	!
4e\	.	4b/	4g#\
=11	=11	=11	=11
*	*2\right	*	*
8f#/L	2B\	4b/	8g\L
16e/L	.	.	16f#\L
16d/JJ	.	.	16e\JJ
8d/L	.	4ryy	8f#\L
8e/J	.	.	8a\J
*	*	*	*2\right
8f#/L	2F#\	2ryy	2a\
8B/	.	.	.
8c#/	.	.	.
!LO:TX:a:t=P:problem=# above	!	!	!
8d#X/J	.	.	.
=12	=12	=12	=12
4.e/	2E\	8g#/L	2c#\
.	.	8a/J	.
!	!	!LO:TX:a:t=P:problem=mixed beam	!
.	.	8b\L	.
4G#/	.	8e/J	.
*clefF4	*	*	*
.	2A/	2a/	8c#\L
4AA\	.	.	8d#X\J
.	.	.	8e\L
8C#\	.	.	16f#\L
.	.	.	16e\JJ
=13	=13	=13	=13
!	!	!	!LO:TX:a:t=P:problem=mixed beam
8B/L	1BB	4a/	4d#\
8A/	.	.	.
8G#/	.	4g#/	4.e\
16F#/L	.	.	.
16E/JJ	.	.	.
2F#/	.	4f#/	.
.	.	.	16d\LL
.	.	.	16c#\JJ
.	.	8g#/L	4d#X\
.	.	8a/J	.
*v	*v	*	*
*	*v	*v
=14	=14
1E 1BB 1EE	1b 1g 1e
!LO:TX:a:t=P:||:problem=w źródle końcowa kreska taktowa 	!LO:TX:a:t=P:||:problem=w źródle końcowa kreska taktowa 
==;	==;
*-	*-
!!!system-decoration: s1,s2
!!!EED: Antoni Szymański
!!!EEV: 2020-12-07
!!!ENC: Tomasz Grochalski
!!!END: 2020-06-11
